swiss/communes/0491.svg

<?xml version="1.0" encoding="UTF-8" standalone="no"?>
<!-- Created with Inkscape (http://www.inkscape.org/) -->

<svg
   xmlns:dc="http://purl.org/dc/elements/1.1/"
   xmlns:cc="http://creativecommons.org/ns#"
   xmlns:rdf="http://www.w3.org/1999/02/22-rdf-syntax-ns#"
   xmlns:svg="http://www.w3.org/2000/svg"
   xmlns="http://www.w3.org/2000/svg"
   xmlns:sodipodi="http://sodipodi.sourceforge.net/DTD/sodipodi-0.dtd"
   xmlns:inkscape="http://www.inkscape.org/namespaces/inkscape"
   version="1.0"
   width="208.86046"
   height="244.65999"
   id="svg2780"
   inkscape:version="0.92.5 (2060ec1f9f, 2020-04-08)"
   sodipodi:docname="Brüttelen-blazon.svg">
  <metadata
     id="metadata27">
    <rdf:RDF>
      <cc:Work
         rdf:about="">
        <dc:format>image/svg+xml</dc:format>
        <dc:type
           rdf:resource="http://purl.org/dc/dcmitype/StillImage" />
        <dc:title></dc:title>
      </cc:Work>
    </rdf:RDF>
  </metadata>
  <sodipodi:namedview
     pagecolor="#ffffff"
     bordercolor="#666666"
     borderopacity="1"
     objecttolerance="10"
     gridtolerance="10"
     guidetolerance="10"
     inkscape:pageopacity="0"
     inkscape:pageshadow="2"
     inkscape:window-width="1620"
     inkscape:window-height="1313"
     id="namedview25"
     showgrid="false"
     inkscape:zoom="0.50000001"
     inkscape:cx="479.42785"
     inkscape:cy="140.57523"
     inkscape:window-x="1487"
     inkscape:window-y="26"
     inkscape:window-maximized="0"
     inkscape:current-layer="svg2780"
     inkscape:measure-start="104.255,149.787"
     inkscape:measure-end="104.255,126.383"
     showguides="true"
     inkscape:object-paths="true"
     inkscape:snap-intersection-paths="true"
     inkscape:snap-object-midpoints="true" />
  <defs
     id="defs2782" />
  <path
     id="path4212-6"
     style="fill:#feeb00;fill-opacity:1;fill-rule:evenodd;stroke:#000000;stroke-width:1.99999988;stroke-linecap:butt;stroke-miterlimit:4;stroke-dashoffset:0;stroke-opacity:1"
     d="M 1.000033,149.10355 V 0.99999834 c 68.953472,0 137.906947,0 206.860417,0 V 149.10355 c 0,51.44535 -51.71515,94.56785 -103.43021,94.56785 -51.71506,0 -103.430207,-43.1225 -103.430207,-94.56785 z"
     inkscape:connector-curvature="0"
     sodipodi:nodetypes="sccscs" />
  <path
     id="path5560-6-8-4"
     style="fill:#000000;fill-opacity:1;stroke:#000000;stroke-width:1.00157475;stroke-miterlimit:8;stroke-dasharray:none;stroke-dashoffset:4.57999992;stroke-opacity:1"
     d="M 145.63279,49.863549 V 90.308785 L 104.43024,42.826515 63.22769,90.308785 V 49.863549 L 104.43024,2.3812802 Z"
     inkscape:connector-curvature="0"
     sodipodi:nodetypes="ccccccc" />
  <path
     id="path5560-6-8-4-6"
     style="fill:#000000;fill-opacity:1;stroke:#000000;stroke-width:1.00157475;stroke-miterlimit:8;stroke-dasharray:none;stroke-dashoffset:4.57999992;stroke-opacity:1"
     d="m 145.63279,128.754 v 40.44524 L 104.43024,121.71697 63.227688,169.19924 V 128.754 L 104.43024,81.271747 Z"
     inkscape:connector-curvature="0"
     sodipodi:nodetypes="ccccccc" />
  <path
     id="path5560-6-8-4-6-6"
     style="fill:#000000;fill-opacity:1;stroke:#000000;stroke-width:1.00157475;stroke-miterlimit:8;stroke-dasharray:none;stroke-dashoffset:4.57999992;stroke-opacity:1"
     d="m 145.63279,207.64446 v 27.20442 l -8.44141,3.51285 -32.76114,-37.7543 -32.597196,37.56537 -8.605353,-3.67747 0,-26.85087 41.202549,-47.48225 z"
     inkscape:connector-curvature="0"
     sodipodi:nodetypes="ccccccccc" />
  <path
     style="fill:#cc2918;fill-opacity:1;stroke:#000000;stroke-width:1.00157475;stroke-miterlimit:8;stroke-dasharray:none;stroke-dashoffset:4.57999992;stroke-opacity:1"
     d="M 66.731892,1.0000349 V 236.24125 C 38.856643,224.44556 2.484793,196.73925 1.004033,149.90004 L 1.000033,1.0000359 Z"
     id="path5558-4"
     inkscape:connector-curvature="0"
     sodipodi:nodetypes="ccccc" />
  <path
     style="fill:#cc2918;fill-opacity:1;stroke:#000000;stroke-width:1.00157475;stroke-miterlimit:8;stroke-dasharray:none;stroke-dashoffset:4.57999992;stroke-opacity:1"
     d="M 142.12846,0.99999834 V 236.24121 c 27.87525,-11.79569 64.2471,-39.502 65.72786,-86.34121 l 0.004,-148.9000016 z"
     id="path5558"
     inkscape:connector-curvature="0"
     sodipodi:nodetypes="ccccc" />
  <path
     id="path9987-9-9-4-6-2-3"
     style="opacity:1;fill:#1b63c6;fill-opacity:1;stroke:#000000;stroke-width:1;stroke-miterlimit:20;stroke-dasharray:none;stroke-dashoffset:4.57999992;stroke-opacity:0.9906977"
     d="m 1.000033,1.0000359 c 1.2687942,-3.756e-5 2.7747327,-3.756e-5 4.0931064,0.051036 4.9969976,9.9022131 9.2167096,20.5959911 17.5155406,27.1328031 13.942055,10.981862 36.593573,8.022874 50.537071,19.005863 13.94349,10.982989 16.37262,33.697438 30.314659,44.679292 13.94206,10.98184 36.59357,8.02285 50.53707,19.00585 13.9435,10.98299 16.37265,33.69744 30.31468,44.67928 6.14536,4.84057 13.98283,6.97263 22.02085,8.78399 -3.90478,19.50035 -16.89106,36.53269 -24.49339,45.39469 -11.12091,-2.69927 -23.00479,-4.17649 -31.58784,-10.93718 C 136.30975,187.81381 133.8806,165.09936 119.93711,154.11637 105.9936,143.13338 83.342101,146.09236 69.400046,135.11051 55.458004,124.12867 53.028867,101.41421 39.085373,90.43123 28.777482,82.31193 13.710591,81.812019 0.92157441,77.666514 Z"
     inkscape:connector-curvature="0"
     sodipodi:nodetypes="ccsssssccsssscc" />
  <path
     id="path4212-6-7"
     style="fill:none;fill-opacity:1;fill-rule:evenodd;stroke:#000000;stroke-width:1.99999988;stroke-linecap:butt;stroke-miterlimit:4;stroke-dashoffset:0;stroke-opacity:1"
     d="M 1.000033,149.10355 V 0.99999834 c 68.953472,0 137.906947,0 206.860417,0 V 149.10355 c 0,51.44535 -51.71515,94.56785 -103.43021,94.56785 -51.71506,0 -103.430207,-43.1225 -103.430207,-94.56785 z"
     inkscape:connector-curvature="0"
     sodipodi:nodetypes="sccscs" />
</svg>

<svg xmlns="http://www.w3.org/2000/svg" version="1.0" width="208.86" height="244.66"><path style="fill:#feeb00;fill-opacity:1;fill-rule:evenodd;stroke:#000;stroke-width:1.99999988;stroke-linecap:butt;stroke-miterlimit:4;stroke-dashoffset:0;stroke-opacity:1" d="M1 149.104V1h206.86v148.104c0 51.445-51.715 94.567-103.43 94.567S1 200.55 1 149.104z"/><path style="fill:#000;fill-opacity:1;stroke:#000;stroke-width:1.00157475;stroke-miterlimit:8;stroke-dasharray:none;stroke-dashoffset:4.57999992;stroke-opacity:1" d="M145.633 49.864v40.445L104.43 42.827 63.228 90.309V49.864L104.43 2.38z"/><path style="fill:#000;fill-opacity:1;stroke:#000;stroke-width:1.00157475;stroke-miterlimit:8;stroke-dasharray:none;stroke-dashoffset:4.57999992;stroke-opacity:1" d="M145.633 128.754v40.445l-41.203-47.482-41.202 47.482v-40.445l41.202-47.482z"/><path style="fill:#000;fill-opacity:1;stroke:#000;stroke-width:1.00157475;stroke-miterlimit:8;stroke-dasharray:none;stroke-dashoffset:4.57999992;stroke-opacity:1" d="M145.633 207.644v27.205l-8.442 3.513-32.76-37.755-32.598 37.566-8.605-3.678v-26.85l41.202-47.483z"/><path style="fill:#cc2918;fill-opacity:1;stroke:#000;stroke-width:1.00157475;stroke-miterlimit:8;stroke-dasharray:none;stroke-dashoffset:4.57999992;stroke-opacity:1" d="M66.732 1v235.241C38.857 224.446 2.485 196.74 1.004 149.9L1 1zM142.128 1v235.241c27.876-11.795 64.248-39.502 65.728-86.341L207.86 1z"/><path style="opacity:1;fill:#1b63c6;fill-opacity:1;stroke:#000;stroke-width:1;stroke-miterlimit:20;stroke-dasharray:none;stroke-dashoffset:4.57999992;stroke-opacity:.9906977" d="M1 1c1.269 0 2.775 0 4.093.051 4.997 9.902 9.217 20.596 17.516 27.133C36.55 39.166 59.202 36.207 73.146 47.19c13.943 10.983 16.372 33.697 30.314 44.679s36.594 8.023 50.537 19.006c13.944 10.983 16.373 33.697 30.315 44.68 6.146 4.84 13.983 6.972 22.021 8.783-3.905 19.5-16.891 36.533-24.493 45.395-11.121-2.7-23.005-4.177-31.588-10.937-13.942-10.982-16.371-33.697-30.315-44.68-13.943-10.983-36.595-8.024-50.537-19.005-13.942-10.982-16.371-33.697-30.315-44.68-10.308-8.12-25.374-8.619-38.163-12.764z"/><path style="fill:none;fill-opacity:1;fill-rule:evenodd;stroke:#000;stroke-width:1.99999988;stroke-linecap:butt;stroke-miterlimit:4;stroke-dashoffset:0;stroke-opacity:1" d="M1 149.104V1h206.86v148.104c0 51.445-51.715 94.567-103.43 94.567S1 200.55 1 149.104z"/></svg>
